dist/svg/u1F97D.svg

<?xml version="1.0" encoding="UTF-8"?><svg id="a" xmlns="http://www.w3.org/2000/svg" viewBox="0 0 40 40"><g><path d="M36.779,23.958h-1.936v-4.963c0-6.458-5.253-11.711-11.71-11.711h-6.266c-6.457,0-11.71,5.254-11.71,11.711v4.963h-1.936v-4.963c0-7.525,6.122-13.647,13.646-13.647h6.266c7.524,0,13.646,6.122,13.646,13.647v4.963Z" fill="#4a4c7c"/><g><path d="M20,19.105H8.957c-2.824,0-5.114,2.29-5.114,5.114v4.597c0,3.222,2.612,5.835,5.835,5.835h1.91c2.837,0,5.358-1.811,6.263-4.5l1.343-3.986c.116-.346,.441-.579,.805-.579h0c.365,0,.689,.233,.805,.579l1.343,3.986c.906,2.689,3.426,4.5,6.263,4.5h1.91c3.222,0,5.835-2.612,5.835-5.835v-4.597c0-2.824-2.29-5.114-5.114-5.114h-11.043Z" fill="#a6b0d5"/><path d="M2.807,23.959h1.036v5.179h-1.036c-.721,0-1.307-.586-1.307-1.307v-2.565c0-.721,.586-1.307,1.307-1.307Z" fill="#696c9d"/><path d="M36.157,23.959h1.036c.721,0,1.307,.586,1.307,1.307v2.565c0,.721-.586,1.307-1.307,1.307h-1.036v-5.179h0Z" fill="#696c9d"/></g><path d="M31.043,21.146H8.957c-1.575,0-2.856,1.281-2.856,2.857v4.597c0,1.973,1.605,3.577,3.577,3.577h1.91c1.87,0,3.527-1.191,4.124-2.962l1.343-3.986c.426-1.266,1.609-2.116,2.945-2.116s2.519,.85,2.945,2.117l1.342,3.986c.597,1.771,2.254,2.962,4.124,2.962h1.91c1.972,0,3.577-1.604,3.577-3.577v-4.597c0-1.575-1.281-2.857-2.856-2.857Z" fill="#e1e5f2"/></g><rect width="40" height="40" fill="none"/></svg>

<svg id="Layer_1" data-name="Layer 1" xmlns="http://www.w3.org/2000/svg" viewBox="0 0 40 40"><defs><style>.cls-1{fill:#4a4c7c;}.cls-2{fill:#a6b0d5;}.cls-3{fill:#696c9d;}.cls-4{fill:#e1e5f2;}.cls-5{fill:none;}</style></defs><path class="cls-1" d="M36.779,23.958H34.843V19A11.724,11.724,0,0,0,23.133,7.284H16.867A11.724,11.724,0,0,0,5.157,19v4.962H3.221V19A13.662,13.662,0,0,1,16.867,5.349h6.266A13.662,13.662,0,0,1,36.779,19Z"/><path class="cls-2" d="M20,19.105H8.957a5.114,5.114,0,0,0-5.114,5.114v4.6a5.835,5.835,0,0,0,5.835,5.835h1.911a6.61,6.61,0,0,0,6.263-4.5L19.2,26.165a.849.849,0,0,1,.8-.578h0a.849.849,0,0,1,.8.578l1.343,3.987a6.61,6.61,0,0,0,6.263,4.5h1.911a5.835,5.835,0,0,0,5.835-5.835v-4.6a5.114,5.114,0,0,0-5.114-5.114Z"/><path class="cls-3" d="M2.807,23.959H3.843a0,0,0,0,1,0,0v5.179a0,0,0,0,1,0,0H2.807A1.307,1.307,0,0,1,1.5,27.831V25.266A1.307,1.307,0,0,1,2.807,23.959Z"/><path class="cls-3" d="M36.157,23.959h1.036A1.307,1.307,0,0,1,38.5,25.266v2.565a1.307,1.307,0,0,1-1.307,1.307H36.157a0,0,0,0,1,0,0V23.959A0,0,0,0,1,36.157,23.959Z"/><path class="cls-4" d="M31.043,21.146H8.957A2.859,2.859,0,0,0,6.1,24v4.6a3.582,3.582,0,0,0,3.577,3.578h1.911a4.348,4.348,0,0,0,4.123-2.962l1.343-3.987a3.107,3.107,0,0,1,5.89,0l1.343,3.986a4.348,4.348,0,0,0,4.123,2.962h1.911A3.582,3.582,0,0,0,33.9,28.6V24A2.859,2.859,0,0,0,31.043,21.146Z"/><rect class="cls-5" width="40" height="40"/></svg>
